docs/static/img/social_media/slack.svg

<svg width="16" height="16" viewBox="0 0 16 16" fill="none" xmlns="http://www.w3.org/2000/svg">
<path d="M5.87014 0C4.98566 0 4.27014 0.716667 4.27014 1.6C4.27014 2.02292 4.43911 2.43125 4.73742 2.73125C5.03781 3.03125 5.44459 3.2 5.87014 3.2H7.47014V1.6C7.47014 0.71875 6.75463 0.00208333 5.87014 0ZM5.87014 4.26667H1.6C0.715515 4.26667 0 4.98333 0 5.86667C0 6.75 0.717601 7.46667 1.6 7.46667H5.86806C6.75254 7.46667 7.46806 6.75 7.46806 5.86667C7.47014 4.98333 6.75254 4.26667 5.87014 4.26667ZM10.1382 7.46667C11.0227 7.46667 11.7403 6.75 11.7382 5.86667V1.6C11.7382 0.716667 11.0227 0 10.1382 0C9.25372 0 8.5382 0.716667 8.5382 1.6V5.86667C8.5382 6.75208 9.25372 7.46667 10.1382 7.46667ZM16.0083 5.86667C16.0083 4.98333 15.2907 4.26667 14.4083 4.26667C13.5259 4.26667 12.8083 4.98333 12.8083 5.86667V7.46667H14.4083C15.2907 7.46667 16.0083 6.75 16.0083 5.86667ZM14.4063 8.53333H10.1382C9.25372 8.53333 8.5382 9.25 8.5382 10.1333C8.5382 10.5563 8.70717 10.9646 9.00548 11.2646C9.30587 11.5646 9.71265 11.7333 10.1382 11.7333H14.4063C15.2907 11.7333 16.0063 11.0167 16.0063 10.1333C16.0083 9.25 15.2907 8.53542 14.4063 8.53333ZM10.1382 12.8H8.5382V14.4C8.5382 15.2833 9.2558 16 10.1382 16C11.0227 16 11.7403 15.2833 11.7382 14.4C11.7403 13.5167 11.0227 12.8021 10.1382 12.8ZM5.87014 8.53333C4.98566 8.53333 4.27014 9.25 4.27014 10.1333V14.4C4.27014 15.2833 4.98774 16 5.87014 16C6.75463 16 7.47223 15.2833 7.47014 14.4V10.1333C7.47014 9.71042 7.30117 9.30208 7.00287 9.00208C6.70248 8.70208 6.29361 8.53333 5.87014 8.53333ZM0 10.1333C0 10.5563 0.16897 10.9646 0.467275 11.2646C0.767666 11.5646 1.17445 11.7333 1.6 11.7333C2.48448 11.7333 3.20209 11.0167 3.2 10.1333V8.53333H1.6C0.717601 8.53333 0 9.25 0 10.1333Z" fill="#62A7BD"/>
</svg>

<svg xmlns="http://www.w3.org/2000/svg" width="16" height="16" fill="none" xmlns:v="https://vecta.io/nano"><path d="M5.87 0a1.6 1.6 0 0 0-1.6 1.6 1.61 1.61 0 0 0 .467 1.131A1.6 1.6 0 0 0 5.87 3.2h1.6V1.6c0-.881-.716-1.598-1.6-1.6zm0 4.267H1.6a1.6 1.6 0 0 0-1.6 1.6 1.6 1.6 0 0 0 1.6 1.6h4.268a1.6 1.6 0 0 0 .002-3.2zm4.268 3.2a1.6 1.6 0 0 0 1.6-1.6V1.6a1.6 1.6 0 1 0-3.2 0v4.267a1.6 1.6 0 0 0 1.6 1.6zm5.87-1.6a1.6 1.6 0 0 0-3.2 0v1.6h1.6a1.6 1.6 0 0 0 1.6-1.6zm-1.602 2.667h-4.268a1.6 1.6 0 0 0-1.6 1.6 1.61 1.61 0 0 0 .467 1.131 1.6 1.6 0 0 0 1.133.469h4.268a1.6 1.6 0 0 0 0-3.2zM10.138 12.8h-1.6v1.6a1.6 1.6 0 1 0 3.2 0 1.6 1.6 0 0 0-1.6-1.6zM5.87 8.533a1.6 1.6 0 0 0-1.6 1.6V14.4a1.6 1.6 0 1 0 3.2 0v-4.267a1.61 1.61 0 0 0-.467-1.131c-.3-.3-.709-.469-1.133-.469zM0 10.133a1.61 1.61 0 0 0 .467 1.131 1.6 1.6 0 0 0 1.133.469 1.6 1.6 0 0 0 1.6-1.6v-1.6H1.6a1.6 1.6 0 0 0-1.6 1.6z" fill="#62a7bd"/></svg>
